dist/img/appstore.svg

<svg width="81" height="24" viewBox="0 0 81 24" fill="none" xmlns="http://www.w3.org/2000/svg">
<path d="M78.1607 23.2649H78.1605H2.83858H2.83837C2.28094 23.2655 1.74611 23.0447 1.35149 22.6512C0.956865 22.2576 0.73477 21.7234 0.734043 21.1661L0.734044 2.8357C0.734802 2.27815 0.956834 1.74368 1.3514 1.34963C1.74598 0.955567 2.28085 0.734149 2.83858 0.733991C2.83859 0.733991 2.83861 0.733991 2.83863 0.733991H78.1599C78.436 0.733991 78.7093 0.788352 78.9643 0.89397C79.2193 0.999588 79.451 1.15439 79.6461 1.34955C79.8413 1.5447 79.9961 1.77637 80.1016 2.03134C80.2072 2.2863 80.2615 2.55957 80.2615 2.83551L80.2621 21.1664C80.2621 21.4422 80.2077 21.7152 80.1021 21.97C79.9964 22.2247 79.8416 22.4562 79.6465 22.6511C79.4513 22.846 79.2196 23.0005 78.9647 23.1058C78.7098 23.2112 78.4366 23.2652 78.1607 23.2649Z" stroke="white" stroke-width="0.1"/>
<path d="M18.0901 11.8802C18.0727 9.9459 19.6744 9.00484 19.7476 8.96103C18.8405 7.63886 17.4346 7.45821 16.9405 7.44381C15.7597 7.31958 14.6142 8.1502 14.0127 8.1502C13.3992 8.1502 12.4729 7.45581 11.4746 7.47622C10.1899 7.49603 8.98802 8.23963 8.32887 9.39435C6.96853 11.7488 7.98308 15.2087 9.28638 17.1119C9.93833 18.0445 10.7001 19.0846 11.6973 19.048C12.6728 19.0084 13.0372 18.4268 14.2144 18.4268C15.3809 18.4268 15.723 19.048 16.74 19.0246C17.787 19.0084 18.4461 18.0883 19.0753 17.1479C19.8287 16.0802 20.1312 15.0275 20.1432 14.9735C20.1192 14.9651 18.1105 14.1981 18.0901 11.8802ZM16.1691 6.19187C16.6938 5.53589 17.0528 4.64344 16.9531 3.73779C16.1937 3.7714 15.244 4.26294 14.6971 4.90451C14.2132 5.46987 13.781 6.39652 13.8927 7.26796C14.7457 7.33158 15.6216 6.83764 16.1691 6.19187Z" fill="white"/>
<path d="M32.2153 18.9028H30.852L30.1052 16.5568H27.5094L26.798 18.9028H25.4707L28.0431 10.9158H29.6315L32.2153 18.9028ZM29.8801 15.5725L29.2047 13.4869C29.1333 13.2739 28.9988 12.7722 28.8019 11.9823H28.7779C28.6986 12.322 28.572 12.8238 28.3985 13.4869L27.7345 15.5725H29.8801ZM38.8177 15.9524C38.8177 16.9319 38.5517 17.7061 38.0193 18.2745C37.5426 18.7804 36.9501 19.0331 36.2435 19.0331C35.4805 19.0331 34.9318 18.7612 34.5986 18.2162V21.2381H33.3187V15.0366C33.3187 14.4214 33.3025 13.7906 33.2713 13.1437H34.3969L34.4683 14.0565H34.4924C34.9192 13.3687 35.5669 13.0248 36.4362 13.0248C37.1158 13.0248 37.6831 13.2931 38.1369 13.8302C38.5902 14.3686 38.8177 15.0756 38.8177 15.9524ZM37.5138 15.9992C37.5138 15.4387 37.3877 14.9766 37.1344 14.6123C36.8576 14.2336 36.486 14.0439 36.0202 14.0439C35.7044 14.0439 35.4175 14.1495 35.1611 14.3578C34.9042 14.5678 34.7361 14.8421 34.6574 15.1818C34.6223 15.3089 34.6024 15.4396 34.598 15.5713V16.5322C34.598 16.9505 34.7265 17.304 34.9834 17.5933C35.2404 17.8814 35.5741 18.026 35.9848 18.026C36.4668 18.026 36.842 17.8393 37.1104 17.469C37.3793 17.0975 37.5138 16.6078 37.5138 15.9992ZM45.4434 15.9524C45.4434 16.9319 45.1775 17.7061 44.645 18.2745C44.1678 18.7804 43.5758 19.0331 42.8687 19.0331C42.1057 19.0331 41.557 18.7612 41.2238 18.2162V21.2381H39.9439V15.0366C39.9439 14.4214 39.9277 13.7906 39.8965 13.1437H41.0221L41.0935 14.0565H41.1175C41.5438 13.3687 42.1915 13.0248 43.0614 13.0248C43.7403 13.0248 44.3076 13.2931 44.7627 13.8302C45.2153 14.3686 45.4434 15.0756 45.4434 15.9524ZM44.1389 15.9992C44.1389 15.4387 44.0123 14.9766 43.7589 14.6123C43.4822 14.2336 43.1118 14.0439 42.6459 14.0439C42.3302 14.0439 42.0432 14.1495 41.7857 14.3578C41.5287 14.5678 41.3613 14.8421 41.2826 15.1818C41.2436 15.3403 41.2226 15.4693 41.2226 15.5713V16.5322C41.2226 16.9505 41.3516 17.304 41.6074 17.5933C41.8643 17.8808 42.1981 18.026 42.6099 18.026C43.0926 18.026 43.4678 17.8393 43.7355 17.469C44.0045 17.0975 44.1389 16.6078 44.1389 15.9992ZM52.8514 16.6624C52.8514 17.3424 52.6137 17.8952 52.1413 18.3219C51.6214 18.7876 50.8956 19.0211 49.9651 19.0211C49.1054 19.0211 48.4163 18.8554 47.8964 18.5235L48.1923 17.457C48.7536 17.7895 49.3702 17.9552 50.0413 17.9552C50.524 17.9552 50.8992 17.8459 51.1669 17.6293C51.4353 17.412 51.5709 17.1215 51.5709 16.759C51.5709 16.4344 51.4587 16.1625 51.2384 15.941C51.0168 15.7202 50.6507 15.5143 50.1362 15.3253C48.7374 14.8037 48.0374 14.0409 48.0374 13.0374C48.0374 12.382 48.2848 11.8455 48.7782 11.426C49.2717 11.0071 49.9261 10.7976 50.7401 10.7976C51.4671 10.7976 52.0728 10.9242 52.5537 11.1769L52.2325 12.22C51.7799 11.9751 51.269 11.8527 50.6975 11.8527C50.246 11.8527 49.8918 11.9637 49.6385 12.1846C49.4254 12.382 49.3173 12.6227 49.3173 12.9084C49.3173 13.2235 49.4404 13.4851 49.6853 13.6904C49.8978 13.8795 50.2857 14.0853 50.8464 14.3062C51.5343 14.5834 52.0398 14.9063 52.3634 15.2772C52.6893 15.6481 52.8514 16.1109 52.8514 16.6624ZM57.0939 14.1039H55.6832V16.9001C55.6832 17.6113 55.9317 17.966 56.43 17.966C56.6587 17.966 56.8484 17.9468 56.9985 17.9066L57.0339 18.8782C56.7818 18.9725 56.4498 19.0199 56.0386 19.0199C55.5331 19.0199 55.1381 18.8656 54.8529 18.5571C54.569 18.2487 54.4261 17.7319 54.4261 17.0045V14.1015H53.5856V13.1413H54.4261V12.0868L55.6832 11.7075V13.1413H57.0939V14.1039ZM63.4465 15.9758C63.4465 16.8611 63.1932 17.5879 62.6877 18.1562C62.1588 18.7414 61.4553 19.0331 60.5782 19.0331C59.7317 19.0331 59.0588 18.7528 58.5569 18.1928C58.055 17.6317 57.8041 16.9247 57.8041 16.0719C57.8041 15.1794 58.0634 14.4484 58.5803 13.8801C59.0984 13.3111 59.796 13.0266 60.673 13.0266C61.5183 13.0266 62.1973 13.3075 62.7111 13.8681C63.2022 14.4118 63.4465 15.114 63.4465 15.9758ZM62.1198 16.0052C62.1198 15.4777 62.0058 15.0252 61.777 14.6465C61.5087 14.1891 61.1245 13.9605 60.6268 13.9605C60.1141 13.9605 59.7209 14.1891 59.4532 14.6465C59.2239 15.0252 59.1098 15.4855 59.1098 16.0292C59.1098 16.5574 59.2239 17.0111 59.4532 17.3886C59.7299 17.8459 60.1159 18.0746 60.616 18.0746C61.1053 18.0746 61.4889 17.8411 61.7662 17.3772C62.0016 16.9895 62.1198 16.534 62.1198 16.0052ZM67.6086 14.269C67.4755 14.2449 67.3404 14.2331 67.2052 14.2336C66.7549 14.2336 66.4067 14.4028 66.1618 14.7437C65.9493 15.0438 65.8424 15.4231 65.8424 15.881V18.9028H64.5625V14.9574C64.5637 14.3528 64.5513 13.7483 64.5253 13.1443H65.6401L65.6869 14.2462H65.7224C65.858 13.8675 66.0705 13.562 66.3623 13.3333C66.6294 13.1335 66.9538 13.0253 67.2874 13.0248C67.4057 13.0248 67.5125 13.0332 67.6074 13.0482L67.6086 14.269ZM73.3327 15.7508C73.3359 15.9453 73.3202 16.1397 73.2858 16.3311H69.4462C69.4606 16.9001 69.6467 17.3358 70.0033 17.6359C70.3268 17.9036 70.7453 18.038 71.2591 18.038C71.8276 18.038 72.3463 17.948 72.8128 17.7661L73.0133 18.6538C72.4682 18.8914 71.8246 19.0097 71.082 19.0097C70.1888 19.0097 69.4876 18.7468 68.9773 18.2223C68.4682 17.6971 68.2131 16.9913 68.2131 16.1073C68.2131 15.2394 68.4502 14.5162 68.9251 13.9395C69.4222 13.3237 70.0939 13.0158 70.9392 13.0158C71.7694 13.0158 72.398 13.3237 72.8248 13.9395C73.1628 14.4274 73.3327 15.0324 73.3327 15.7508ZM72.1122 15.4189C72.1212 15.039 72.0372 14.7119 71.8637 14.4352C71.6421 14.0787 71.3012 13.9011 70.8443 13.9011C70.4259 13.9011 70.0849 14.0745 69.8256 14.4226C69.6125 14.6993 69.4858 15.0318 69.4468 15.4177L72.1122 15.4189Z" fill="white"/>
<path d="M27.1425 8.09925C26.7865 8.09925 26.4785 8.08184 26.2222 8.05243V4.19097C26.5807 4.1356 26.943 4.10831 27.3058 4.10935C28.7735 4.10935 29.4495 4.83135 29.4495 6.00827C29.4495 7.36584 28.6511 8.09925 27.1425 8.09925ZM27.3574 4.60449C27.1593 4.60449 26.9906 4.61649 26.8507 4.6453V7.5807C26.9263 7.59271 27.0716 7.59811 27.2757 7.59811C28.2375 7.59811 28.785 7.05076 28.785 6.02568C28.785 5.11163 28.2897 4.60449 27.3574 4.60449ZM31.556 8.12865C30.7288 8.12865 30.1927 7.51109 30.1927 6.67265C30.1927 5.79881 30.7402 5.17584 31.6029 5.17584C32.4181 5.17584 32.9662 5.764 32.9662 6.62644C32.9662 7.51108 32.4013 8.12865 31.556 8.12865ZM31.5801 5.63557C31.1256 5.63557 30.8345 6.06049 30.8345 6.65465C30.8345 7.23741 31.1316 7.66233 31.5741 7.66233C32.0165 7.66233 32.3137 7.208 32.3137 6.64265C32.3137 6.06649 32.0225 5.63557 31.5801 5.63557ZM37.6836 5.23406L36.7981 8.06444H36.2212L35.8544 6.8353C35.7632 6.53464 35.6872 6.22957 35.6268 5.92125H35.6148C35.5686 6.22973 35.481 6.53882 35.3879 6.8353L34.9977 8.06444H34.4148L33.5815 5.23406H34.2281L34.5487 6.57963C34.6243 6.90012 34.6879 7.2026 34.7408 7.48828H34.7528C34.799 7.25001 34.8746 6.95233 34.9857 6.58563L35.3879 5.23466H35.9006L36.2854 6.55682C36.3785 6.87731 36.4541 7.1918 36.5129 7.48888H36.5297C36.5706 7.1978 36.6348 6.88871 36.7218 6.55682L37.0658 5.23466L37.6836 5.23406ZM40.9433 8.06444H40.3142V6.43919C40.3142 5.93865 40.1221 5.68778 39.7433 5.68778C39.3705 5.68778 39.1141 6.00827 39.1141 6.38097V8.06444H38.485V6.04308C38.485 5.79281 38.479 5.52454 38.4616 5.23346H39.0151L39.0445 5.67038H39.0619C39.2312 5.3679 39.5746 5.17584 39.9594 5.17584C40.5537 5.17584 40.9439 5.63017 40.9439 6.36957L40.9433 8.06444ZM42.6783 8.06444H42.0485V3.9353H42.6783V8.06444ZM44.9721 8.12865C44.1454 8.12865 43.6088 7.51109 43.6088 6.67265C43.6088 5.79881 44.1563 5.17584 45.0183 5.17584C45.8342 5.17584 46.3817 5.764 46.3817 6.62644C46.3823 7.51108 45.8168 8.12865 44.9721 8.12865ZM44.9955 5.63557C44.5411 5.63557 44.2499 6.06049 44.2499 6.65465C44.2499 7.23741 44.5477 7.66233 44.9889 7.66233C45.4319 7.66233 45.7285 7.208 45.7285 6.64265C45.7291 6.06649 45.4385 5.63557 44.9955 5.63557ZM48.8622 8.06444L48.8166 7.73855H48.7998C48.6077 8.00082 48.3273 8.12865 47.9719 8.12865C47.4646 8.12865 47.1044 7.77336 47.1044 7.29563C47.1044 6.59703 47.7102 6.23573 48.7589 6.23573V6.18352C48.7589 5.81082 48.5614 5.62417 48.1712 5.62417C47.8921 5.62417 47.6471 5.69439 47.4316 5.83422L47.3038 5.42071C47.5655 5.25747 47.8921 5.17584 48.2757 5.17584C49.0153 5.17584 49.3887 5.56595 49.3887 6.34677V7.38925C49.3887 7.67493 49.4013 7.89639 49.4295 8.06504L48.8622 8.06444ZM48.7757 6.65465C48.077 6.65465 47.7264 6.8239 47.7264 7.22541C47.7264 7.52249 47.9071 7.66773 48.158 7.66773C48.478 7.66773 48.7757 7.42346 48.7757 7.09157V6.65465ZM52.4437 8.06444L52.4143 7.61011H52.3969C52.2162 7.95341 51.9124 8.12865 51.488 8.12865C50.8054 8.12865 50.3 7.52849 50.3 6.68406C50.3 5.79881 50.8241 5.17524 51.5396 5.17524C51.9184 5.17524 52.1868 5.30308 52.3381 5.55995H52.3507V3.9353H52.9804V7.30163C52.9804 7.5753 52.987 7.83157 53.0038 8.06444H52.4437ZM52.3507 6.39898C52.3507 6.00287 52.0883 5.66498 51.6879 5.66498C51.2215 5.66498 50.9363 6.07849 50.9363 6.66065C50.9363 7.23141 51.2323 7.62212 51.6753 7.62212C52.0709 7.62212 52.3507 7.27822 52.3507 6.87071V6.39898ZM56.9732 8.12865C56.1465 8.12865 55.6104 7.51109 55.6104 6.67265C55.6104 5.79881 56.1579 5.17584 57.02 5.17584C57.8358 5.17584 58.3833 5.764 58.3833 6.62644C58.3839 7.51108 57.819 8.12865 56.9732 8.12865ZM56.9966 5.63557C56.5427 5.63557 56.2516 6.06049 56.2516 6.65465C56.2516 7.23741 56.5487 7.66233 56.9906 7.66233C57.4336 7.66233 57.7302 7.208 57.7302 6.64265C57.7314 6.06649 57.4402 5.63557 56.9966 5.63557ZM61.7668 8.06444H61.137V6.43919C61.137 5.93865 60.9449 5.68778 60.5661 5.68778C60.1933 5.68778 59.9376 6.00827 59.9376 6.38097V8.06444H59.3078V6.04308C59.3078 5.79281 59.3018 5.52454 59.2844 5.23346H59.8379L59.8673 5.67038H59.8847C60.0534 5.3679 60.3974 5.17524 60.7816 5.17524C61.376 5.17524 61.7668 5.62957 61.7668 6.36897V8.06444ZM65.9997 5.70579H65.3075V7.08017C65.3075 7.43006 65.4287 7.60471 65.6737 7.60471C65.7847 7.60471 65.8778 7.59271 65.9528 7.5753L65.9702 8.05303C65.8484 8.09985 65.6851 8.12325 65.4822 8.12325C64.9863 8.12325 64.6897 7.84958 64.6897 7.13298V5.70579H64.2767V5.23406H64.6897V4.71552L65.3075 4.52887V5.23346H65.9997V5.70579ZM69.3302 8.06444H68.7017V6.45119C68.7017 5.94465 68.5102 5.68838 68.1308 5.68838C67.8048 5.68838 67.5011 5.90985 67.5011 6.35817V8.06444H66.8725V3.9353H67.5011V5.63557H67.5137C67.7118 5.32708 67.9987 5.17524 68.3649 5.17524C68.964 5.17524 69.3302 5.64097 69.3302 6.38097V8.06444ZM72.7425 6.80049H70.8545C70.8665 7.33644 71.2213 7.63892 71.7466 7.63892C72.0257 7.63892 72.2826 7.59211 72.5096 7.50508L72.6074 7.942C72.3397 8.05844 72.0245 8.11665 71.6577 8.11665C70.7722 8.11665 70.2481 7.5573 70.2481 6.69006C70.2481 5.82222 70.7848 5.16984 71.5869 5.16984C72.3103 5.16984 72.7641 5.70579 72.7641 6.51541C72.7682 6.61096 72.7609 6.70665 72.7425 6.80049ZM72.1656 6.35217C72.1656 5.91525 71.9453 5.60676 71.543 5.60676C71.1816 5.60676 70.8959 5.92125 70.8551 6.35217H72.1656Z" fill="white"/>
</svg>

<svg fill="none" xmlns="http://www.w3.org/2000/svg" viewBox="0 0 81 24"><path d="M78.16 23.265h0H2.84h0a2.103 2.103 0 01-2.105-2.099V2.836A2.104 2.104 0 012.839.734s0 0 0 0h75.32a2.102 2.102 0 012.102 2.102l.001 18.33a2.099 2.099 0 01-2.101 2.099z" stroke="#fff" stroke-width=".1"/><path d="M18.09 11.88c-.017-1.934 1.584-2.875 1.658-2.919-.908-1.322-2.313-1.503-2.808-1.517-1.18-.124-2.326.706-2.927.706-.614 0-1.54-.694-2.538-.674-1.285.02-2.487.764-3.146 1.918-1.36 2.355-.346 5.815.957 7.718.652.933 1.414 1.973 2.411 1.936.976-.04 1.34-.621 2.517-.621 1.167 0 1.509.621 2.526.598 1.047-.017 1.706-.937 2.335-1.877.754-1.068 1.056-2.12 1.068-2.175-.024-.008-2.033-.775-2.053-3.093zm-1.92-5.688c.524-.656.883-1.549.783-2.454-.76.033-1.709.525-2.256 1.167-.484.565-.916 1.492-.804 2.363.853.064 1.729-.43 2.276-1.076zm16.045 12.711h-1.363l-.747-2.346H27.51l-.711 2.346h-1.327l2.572-7.987h1.588l2.584 7.987zm-2.335-3.33l-.675-2.086c-.072-.213-.206-.715-.403-1.505h-.024c-.08.34-.206.842-.38 1.505l-.663 2.085h2.145zm8.938.38c0 .979-.266 1.753-.799 2.322-.476.505-1.069.758-1.776.758-.763 0-1.311-.272-1.644-.817v3.022h-1.28v-6.201c0-.616-.017-1.246-.048-1.893h1.126l.071.912h.024c.427-.687 1.075-1.031 1.944-1.031.68 0 1.247.268 1.7.805.454.539.682 1.246.682 2.122zm-1.304.046c0-.56-.126-1.022-.38-1.387a1.312 1.312 0 00-1.114-.568c-.316 0-.603.105-.859.314-.257.21-.425.484-.504.824a1.673 1.673 0 00-.059.39v.96c0 .419.129.772.385 1.061.257.288.591.433 1.002.433.482 0 .857-.187 1.125-.557.27-.372.404-.861.404-1.47zm7.93-.047c0 .98-.267 1.754-.799 2.322a2.343 2.343 0 01-1.776.76c-.763 0-1.312-.273-1.645-.818v3.022h-1.28v-6.201c0-.616-.016-1.246-.047-1.893h1.125l.072.912h.023c.427-.687 1.075-1.031 1.944-1.031.68 0 1.247.268 1.702.805.452.539.68 1.246.68 2.122zM44.138 16c0-.56-.127-1.022-.38-1.387a1.31 1.31 0 00-1.113-.568 1.33 1.33 0 00-.86.314 1.45 1.45 0 00-.503.824 1.71 1.71 0 00-.06.39v.96c0 .419.129.772.384 1.061.257.288.591.433 1.003.433.483 0 .858-.187 1.126-.557.269-.372.403-.861.403-1.47zm8.712.663c0 .68-.237 1.233-.71 1.66-.52.466-1.245.7-2.176.7-.86 0-1.549-.167-2.069-.498l.296-1.067a3.562 3.562 0 001.85.498c.482 0 .857-.11 1.125-.326.268-.217.404-.508.404-.87 0-.325-.112-.596-.333-.818-.221-.22-.587-.427-1.102-.616-1.399-.521-2.099-1.284-2.099-2.288 0-.655.248-1.192.741-1.611.494-.419 1.148-.628 1.962-.628.727 0 1.333.126 1.814.379l-.322 1.043a3.171 3.171 0 00-1.535-.367c-.451 0-.805.11-1.059.332a.95.95 0 00-.32.723c0 .316.122.577.367.782.213.19.6.395 1.161.616.688.277 1.194.6 1.517.971.326.371.488.834.488 1.385zm4.243-2.558h-1.41V16.9c0 .711.248 1.066.746 1.066.229 0 .418-.02.569-.06l.035.972c-.252.095-.584.142-.995.142-.506 0-.9-.154-1.186-.463-.284-.308-.427-.825-.427-1.552v-2.903h-.84v-.96h.84v-1.055l1.257-.38v1.434h1.41v.963zm6.352 1.872c0 .885-.253 1.612-.758 2.18-.53.585-1.233.877-2.11.877-.846 0-1.52-.28-2.021-.84-.502-.561-.753-1.268-.753-2.121 0-.893.26-1.624.776-2.192.518-.569 1.216-.853 2.093-.853.845 0 1.524.28 2.038.841.491.544.736 1.246.736 2.108zm-1.326.03c0-.528-.114-.98-.343-1.36-.268-.457-.653-.686-1.15-.686-.513 0-.906.23-1.174.686-.23.38-.343.84-.343 1.383 0 .528.114.982.343 1.36.277.457.663.686 1.163.686.49 0 .873-.234 1.15-.698.236-.387.354-.843.354-1.372zm5.489-1.737a2.219 2.219 0 00-.404-.035c-.45 0-.798.169-1.043.51-.213.3-.32.68-.32 1.137v3.022h-1.28v-3.946a37.81 37.81 0 00-.037-1.813h1.115l.047 1.102h.035c.136-.379.349-.684.64-.913.267-.2.592-.308.925-.308.119 0 .225.008.32.023l.002 1.221zm5.724 1.482c.003.194-.013.389-.047.58h-3.84c.015.57.2 1.005.557 1.305.324.268.742.402 1.256.402.569 0 1.087-.09 1.554-.272l.2.888c-.545.237-1.188.356-1.931.356-.893 0-1.594-.263-2.105-.788-.509-.525-.764-1.23-.764-2.115 0-.868.237-1.59.712-2.167.497-.616 1.169-.924 2.014-.924.83 0 1.459.308 1.886.924.338.487.508 1.092.508 1.81zm-1.22-.332a1.732 1.732 0 00-.25-.984c-.22-.356-.562-.534-1.019-.534-.418 0-.76.174-1.018.522-.213.276-.34.609-.38.995h2.666zM27.142 8.1c-.355 0-.663-.018-.92-.048V4.191a7.027 7.027 0 011.084-.082c1.467 0 2.143.722 2.143 1.9 0 1.357-.798 2.09-2.307 2.09zm.215-3.496c-.198 0-.366.012-.506.041v2.936c.075.012.22.017.425.017.962 0 1.509-.547 1.509-1.572 0-.914-.495-1.422-1.428-1.422zm4.199 3.525c-.827 0-1.363-.618-1.363-1.456 0-.874.547-1.497 1.41-1.497.815 0 1.363.588 1.363 1.45 0 .885-.565 1.503-1.41 1.503zm.024-2.493c-.454 0-.745.424-.745 1.019 0 .582.297 1.007.74 1.007.442 0 .739-.454.739-1.02 0-.576-.291-1.006-.734-1.006zm6.104-.402l-.886 2.83h-.577l-.367-1.229a9.325 9.325 0 01-.227-.914h-.012a6.116 6.116 0 01-.227.914l-.39 1.23h-.583l-.834-2.83h.647l.32 1.345c.076.32.14.623.193.908h.012c.046-.238.122-.536.233-.902l.402-1.351h.513l.384 1.322c.094.32.17.635.228.932h.017c.04-.291.105-.6.192-.932l.344-1.322h.618zm3.26 2.83h-.63V6.44c0-.5-.192-.751-.57-.751-.373 0-.63.32-.63.693v1.683h-.629v-2.02c0-.251-.006-.52-.023-.81h.553l.03.436h.017c.17-.302.513-.494.897-.494.595 0 .985.454.985 1.194v1.694zm1.734 0h-.63V3.935h.63v4.13zm2.294.065c-.827 0-1.363-.618-1.363-1.456 0-.874.547-1.497 1.41-1.497.815 0 1.363.588 1.363 1.45 0 .885-.565 1.503-1.41 1.503zm.023-2.493c-.454 0-.745.424-.745 1.019 0 .582.298 1.007.739 1.007.443 0 .74-.454.74-1.02 0-.576-.29-1.006-.733-1.006zm3.867 2.428l-.045-.325H48.8c-.192.262-.473.39-.828.39-.507 0-.868-.356-.868-.833 0-.699.606-1.06 1.655-1.06v-.052c0-.373-.198-.56-.588-.56-.279 0-.524.07-.74.21l-.127-.413c.261-.164.588-.245.972-.245.74 0 1.113.39 1.113 1.17V7.39c0 .286.012.507.04.676h-.567zm-.086-1.41c-.699 0-1.05.17-1.05.571 0 .297.181.443.432.443.32 0 .618-.245.618-.576v-.437zm3.668 1.41l-.03-.454h-.017c-.18.343-.485.519-.909.519-.683 0-1.188-.6-1.188-1.445 0-.885.524-1.509 1.24-1.509.378 0 .647.128.798.385h.013V3.935h.63v3.367c0 .273.006.53.023.762h-.56zM52.35 6.4c0-.396-.263-.734-.663-.734-.467 0-.752.413-.752.996 0 .57.296.961.74.961.395 0 .675-.344.675-.751V6.4zm4.622 1.73c-.826 0-1.363-.618-1.363-1.456 0-.874.548-1.497 1.41-1.497.816 0 1.363.588 1.363 1.45 0 .885-.564 1.503-1.41 1.503zm.024-2.493c-.454 0-.745.424-.745 1.019 0 .582.297 1.007.739 1.007.443 0 .74-.454.74-1.02 0-.576-.29-1.006-.734-1.006zm4.77 2.428h-.63V6.44c0-.5-.192-.751-.57-.751-.374 0-.63.32-.63.693v1.683h-.63v-2.02c0-.251-.005-.52-.023-.81h.554l.03.436h.017c.168-.302.512-.495.897-.495.594 0 .985.455.985 1.194v1.695zM66 5.706h-.692V7.08c0 .35.12.525.366.525.11 0 .204-.012.279-.03l.017.478a1.39 1.39 0 01-.488.07c-.496 0-.792-.273-.792-.99V5.706h-.413v-.472h.413v-.518l.618-.187v.704H66v.473zm3.33 2.358h-.628V6.451c0-.506-.192-.763-.571-.763-.326 0-.63.222-.63.67v1.706h-.629V3.935h.63v1.7h.012a.954.954 0 01.85-.46c.6 0 .966.466.966 1.206v1.683zM72.743 6.8h-1.888c.011.536.366.839.892.839.279 0 .536-.047.763-.134l.097.437a2.363 2.363 0 01-.95.175c-.885 0-1.409-.56-1.409-1.427 0-.868.537-1.52 1.339-1.52.723 0 1.177.536 1.177 1.345.004.096-.003.192-.021.285zm-.577-.448c0-.437-.22-.745-.623-.745-.361 0-.647.314-.688.745h1.31z" fill="#fff"/></svg>
